X: 1
T:The Woodside Reel
M:4/4
L:1/8
C:Stephen McNally
S:© 1996
K:AMix
e2 |:aAcd egfd|egfd edBd|aAcd egfd|edBd e2e2:|
eA (3AAA egfd|edBd egfd|eA (3AAA egfd|edBd e2e2:|
Bddg fged|BddB G4|Bddg fged|df-fd e4|
Bddg fged|BddB GBdG|Bddg fged|Baad e4||
Baad eaBa|caad eaca|egfg edBd|egfd e4|
Baad eaBa|caad eafa|egfg efde|cdBc A4
